X:1
T:Amour a tort
T:Amour a tort
T:Tylman Susato (1500 (?) - 1561 (?)
C:Tylman Susato
C:(1500 (?) - 1561 (?)
%%score [ 1 2 3 4 ]
L:1/8
Q:1/4=120
M:2/2
K:C
V:1 alto1 nm="Soprano"
V:2 alto nm="Alto"
V:3 alto nm="Tenor"
V:4 bass3 nm="Bass"
V:1
 E8 x8 | G4 A2 G2- | G2 c4 B2 | c3 B/A/ G4- | G8 | z4 z2 G2 | G2 A2 B4 | c4 B2 G2 | A2 G2 c4- | %9
w: |A- mour a|_ tort _|_ _ _ _||de|me te- nir|ri- gueur a-|mour a tort|
 c2 BA B4 | z2 G2 A2 A2 | c4 B2 A2- |"^#" AG G4 F2 | G4 z2 c2 | c2 c2 A2 A2 | B2 d2 c2 B2- | %16
w: _ _ _ _|de me te-|nir _ _|_ _ _ ri-|gueur quant|il ma mis nuict|et iour en oul-|
"^#" BA A4 G2 | A8- | A8 | z2 A2 A2 c2- | c2 BA G2 A2 | G2 E2 G2 A2 | B3 A Bc d2- | d2 c4 B2 | c8 | %25
w: * * tra- *|ge|_|et ne me|_ don- * ne cel-|le qui tient _|_ _ _ _ _|* * mon|cueur|
 z4 z2 G2 | A2 A2 G3 F | E2 G3 F E2 | D2 E2 F4 | E4 z2 G2 | A4 A4 | G4 z2 G2 | c6 A2 | B6 c2 | %34
w: mais|puis qu'en moy ny|a aul- * *|tre cou- rai-|ge tous-|iours vi-|vray tous-|iours vi-|vray en|
 d3 c B2 A2 | c4 B2 A2- | AG G4 F2 | G4 z2 G2 | A4 A4 | G4 z2 G2 | c6 A2 | B6 c2 | d3 c/B/ A2 A2 | %43
w: pai- * * ne'et|en lan- *||gueur tous-|iours vi-|vray tous-|iours vi-|vray en|pai- * * * ne'et|
 c4 B2 A2- | AG G4 F2 | G8 |] %46
w: lan- * *||gueur.|
V:2
 C16 | C8 | E4 D4 | C4 z4 | D4 E2 C2 | G3 F/E/ D2 D2 | E4 D2 G2- | G2 F2 G4 | z2 D2 E2 C2 | %9
w: |A-|mour a|tort|a- mour a|tort _ _ _ a-|mour a tort|_ _ _|a- mour a|
 D2 D2 D2 E2 | F2 G2 E2 F2 | G4 F4 | E2 C2 D4 | B,2 E2 E2 E2 | C2 F2 F2 F2 | D2 D2 E2 G2 | %16
w: tort de me te-|nir ri- gueur de|me te-|nir _ ri-|gueur quant il ma|mis quant il ma|mis nuict et iour|
 F2 D2 E4 | C2 E2 E2 F2- | F2 ED C3 D | E2 F4 E2- | E2 D2 E4- | E4 z2 C2 | E4 D2 D2 | E2 F2 G4 | %24
w: en oul- tra-|ge et ne me|_ don- * * *||* * ne|_ cel-|le qui tient|_ _ mon|
 E4 z2 E2 | E2 F2 E3 D | C4 z2 G2- | GF E2 D2 CB, | A,2 C4 B,2 | C4 z2 E2 | F6 D2 | E4 z2 B,2 | %32
w: cueur mais|puis qu'en moy _|_ ny|_ a aul- tre cou- *|rai- * *|ge tous-|iours vi-|vray tous-|
 C3 D E2 F2 | G6 G2 | A4 F4 | G4 F4 | F2 D2 D4 | B,4 z2 E2 | F6 D2 | E4 z2 B,2 | C3 D E2 F2 | %41
w: iours _ _ vi-|vray en|pai- *|* ne'et|_ en lan-|gueur tous-|iours vi-|vray tous-|iours _ _ vi-|
 G6 G2 | A4 F4 | G4 F4- | F2 D2 D4 | B,8 |] %46
w: vray en|pai- *|* ne'et|_ en lan-|gueur.|
V:3
 E,8 x8 | z8 | z4 G,4 | A,2 G,4 C2- | C2 B,2 C2 B,A, | G,2 G,2 G,A, B,2 | C4 B,4 | z2 C2 E4 | %8
w: ||A-|mour a tort|_ _ _ _ de|me te- nir _ _|ri- gueur|a- mour|
 D2 G4 F2 | G4 z2 G,2 | A,2 B,2 C2 D2 | E4 D3 C | B,2 A,G, A,4 | G,2 C2 C2 C2 | A,2 A,2 A,2 D2- | %15
w: a tort _|_ de|me te- nir ri-|||gueur quant il ma|mis nuict et iour|
 DC B,2 A,2 G,2 | A,4 B,4 | A,2 C2 C2 D2- | D2 CB, A,3 B, | CB,A,G, F,2 G,2 | A,4 B,2 C2 | %21
w: _ _ _ en oul-|tra- *|ge et ne me|_ don- * * *||* ne cel-|
 C2 C2 B,2 A,2 | G,2 G2 G2 F2 | E2 DC D4 | C4 z2 C2 | C2 D2 C3 B, | A,4 z4 | C4 B,2 G,2 | %28
w: le qui tient mon|cueur cel- le qui|tient _ _ mon|cueur mais|puis qu'en moy _|_|ny a aul-|
 A,2 G,4 F,2 | G,4 z2 C2 | C6 A,2 | B,4 z2 E2 | E6 C2 | D4 E4 | F4 D4 | E4 D4 | C2 B,2 A,4 | %37
w: tre cou- rai-|ge tou-|iours vi-|vray tous-|iours vi-|vray en|pai- *||ne'et en lan-|
 G,4 z2 C2 | C6 A,2 | B,4 z2 E2 | E4 C4 | D4 E4 | F4 D4 | E4 D4 | C2 B,2 A,4 | G,8 |] %46
w: gueur tous-|iours vi-|vray tous-|iours vi-|vray en|pai- *||ne'et en lan-|gueur.|
V:4
 A,,8 x8 | z8 | z8 | C,4 E,2 C,2 | G,4 z2 C,2 | E,2 C,2 G,4 | z4 G,4 | A,4 G,2 C2- | C2 B,2 A,4 | %9
w: |||A- mour a|tort a-|mour a tort|a-|mour a tort|_ _ _|
 G,8 | z8 | C,4 D,2 D,2 | E,4 D,4 | G,,2 C,2 C,2 C,2 | F,6 F,2 | G,2 G,2 C,2 E,2 | F,4 E,4 | %17
w: ||de me te-|nir ri-|gueur quant il ma|mis nuict|et iour en oul-|tra- *|
 A,,4 z2 D,2 | D,2 F,4 E,D, | C,2 D,4 E,2 | F,4 E,2 A,,2 | C,3 D, E,2 F,2 | E,3 F, G,2 D,2 | %23
w: ge et|ne me don- *||* ne cel-|le _ _ quit|tient _ _ _|
 A,4 G,4 | C,8 | z4 z2 C,2 | F,2 F,2 E,3 D, | C,4 G,4 | F,2 E,2 D,4 | C,4 z2 C,2 | F,4 F,4 | %31
w: _ mon|cueur|mais|puis qu'en moy ny|a aul-|tre cou- rai-|ge tous-|iours vi-|
 E,4 z2 E,2 | A,4 A,4 | G,3 F, E,4 | D,4 D,4 | C,4 D,3 E, | F,2 G,2 D,4 | G,4 z2 C,2 | F,4 F,4 | %39
w: vray tous-|iours vi-|vray _ _|en pai-|* ne'et _|_ en lan-|gueur tous-|iours vi-|
 E,4 z2 E,2 |"^#" A,6 A,2 | G,3 F, E,4 | D,4 D,4 | C,4 D,3 E, | F,2 G,2 D,4 | G,,8 |] %46
w: vray tous-|iours vi-|vray _ _|en pai-|* ne'et _|_ en lan-|gueur.|

